!! 00000] TT[00
!! NN
!!!OTL: Gechang da shengchan
!!!ARE: Asia, China,ÿShandong, Cangshan
!! Ethnic Group: Han
!! III, 325
!!!SCT: C0301
!!!YEM: Copyright 1995, estate of Helmut Schaffrath.
**kern
*ICvox
*Ivox
*M2/4
*k[f#c#g#]
*A:
{8r
8ff#
8ff#
16ff#
16ee
=1
8ff#
8ff#
8cc#
8gg#
=2
16ff#
16gg#
16ff#
16ee
8ff#
[8cc#
=3
8cc#]}
{8eee
16ccc#
16eee
16ccc#
16eee
=4
8fff#
8ccc#
4eee
=5
8eee
8ff#
8gg#
16ff#
16ff#
=6
2ee}
=7
{8ee
8ee
8ff#
16ff#
16aa
=8
8ee
8cc#
8ccc#
16bb
16ccc#
=9
8ee
8ee
8cc#
[8b
=10
8b]}
{8gg#
16ff#
16gg#
16ff#
16ee
=11
8ff#
16ff#
16ee
8ff#
16ff#
16aa
=12
8ee
8cc#
8ccc#
16bb
16ccc#
=13
2ee}
=14
{8cc#
8gg#
8ff#
[8cc#
=15
8cc#]
8fff#
8fff#
8eee
=16
8fff#
8ccc#
8eee
16eee
16fff#
=17
8ccc#
8aa
4bb}
=18
{8eee
8aa
8bb
16aa
16bb
=19
8eee
8aa
4bb}
=20
{8ccc#
16ccc#
16eee
8aa
16aa
16bb
=21
8ccc#
16eee
16eee
8gg#
16ff#
16ff#
=22
4ee
8ff#
16aa
16aa
=23
8ee
8cc#
8ccc#
16bb
16ccc#
=24
2ee}
==
!!!AGN: Wuge, Huagu, Xiaodiao. Xin minge
!! Ab dem letzten Takt in der ersten Zeile muss man im Falsett
!!    singen.
!!    Wenig Verzierungen, Glissandi und Atemzeichen.
!!!ONB: ESAC (Essen Associative Code) Database: CHINA
!!!AMT: simple duple
!!!AIN: vox
!!!EED: Helmut Schaffrath
!!!EEV: 1.0
*-
!!!ONB: Tied note syntax fixed by Craig Sapp, 2004/05/03/
